X:38
T:Juizer Tänzli - Rassiges Tänzli  A-Dur
T:Sepp Herger  (* 16.1.1962)
T:Dirigenten-Notiz  Edi Gasser
C:Unterwalden (CH)
%%partsbox
%P:AB
R:Naturjodel
L:1/16
Q:1/4=100
K:A
M:2/4
AA |: A2CD ^DEFG | ACEA CCCE | GDEG DEFG | 
ACEA GFED | CCCD ^DEFG | ACEA CCCE | GDEG DEFG |1 
AECE A2 zE :|2 A2AA A2 zE |: FFF2 GGG2 | ACEA CCCE | 
GDEG DEFG | ACEA CCCE | FFF2 GGG2 | ACEA CCCE | 
GDEG DEFG |1 AECE A2 zE :|2 A2AA A2z2 |] 
%W:Reihenfolge: A-B
W: rassiges Tänzli (ev. Schwyzerörgeli-Duett)
W: das ganze Stück 2x durchspielen mit Wiederholungen !
W: 
W:notiert Edi Gasser %, nach Angaben von Sepp
W:UJV-Naturjodelsammlung: Code-Nr: 22-18
W:http://www.naturjodler.ch/code 22.htm  (with AUDIO)
%May 23, 2018

